icons/project-roadmap-24.svg

<svg width="24" height="24" viewBox="0 0 24 24" fill="none" xmlns="http://www.w3.org/2000/svg">
<path d="M8.75 7C8.33579 7 8 7.33579 8 7.75C8 8.16421 8.33579 8.5 8.75 8.5H16.25C16.6642 8.5 17 8.16421 17 7.75C17 7.33579 16.6642 7 16.25 7H8.75Z" fill="black"/>
<path d="M7 11.75C7 11.3358 7.33579 11 7.75 11H14.25C14.6642 11 15 11.3358 15 11.75C15 12.1642 14.6642 12.5 14.25 12.5H7.75C7.33579 12.5 7 12.1642 7 11.75Z" fill="black"/>
<path d="M9.75 15C9.33579 15 9 15.3358 9 15.75C9 16.1642 9.33579 16.5 9.75 16.5H16.25C16.6642 16.5 17 16.1642 17 15.75C17 15.3358 16.6642 15 16.25 15H9.75Z" fill="black"/>
<path fill-rule="evenodd" clip-rule="evenodd" d="M2 3.75C2 2.7835 2.7835 2 3.75 2H20.25C21.2165 2 22 2.7835 22 3.75V20.25C22 21.2165 21.2165 22 20.25 22H3.75C2.7835 22 2 21.2165 2 20.25V3.75ZM3.75 3.5H20.25C20.3881 3.5 20.5 3.61193 20.5 3.75V20.25C20.5 20.3881 20.3881 20.5 20.25 20.5H3.75C3.61193 20.5 3.5 20.3881 3.5 20.25V3.75C3.5 3.61193 3.61193 3.5 3.75 3.5Z" fill="black"/>
</svg>

<svg xmlns="http://www.w3.org/2000/svg" width="24" height="24" viewBox="0 0 24 24"><path d="M8.75 7a.75.75 0 000 1.5h7.5a.75.75 0 000-1.5h-7.5zM7 11.75a.75.75 0 01.75-.75h6.5a.75.75 0 010 1.5h-6.5a.75.75 0 01-.75-.75zM9.75 15a.75.75 0 000 1.5h6.5a.75.75 0 000-1.5h-6.5z"/><path fill-rule="evenodd" d="M2 3.75C2 2.784 2.784 2 3.75 2h16.5c.966 0 1.75.784 1.75 1.75v16.5A1.75 1.75 0 0120.25 22H3.75A1.75 1.75 0 012 20.25V3.75zm1.75-.25h16.5a.25.25 0 01.25.25v16.5a.25.25 0 01-.25.25H3.75a.25.25 0 01-.25-.25V3.75a.25.25 0 01.25-.25z"/></svg>
